brandFactory_export/2.Regular/Datacloud_2Regular.svg

<?xml version="1.0" encoding="UTF-8"?>
<svg width="24px" height="24px" viewBox="0 0 24 24" version="1.1" xmlns="http://www.w3.org/2000/svg" xmlns:xlink="http://www.w3.org/1999/xlink">
    <title>2.Regular/Datacloud_2Regular</title>
    <g id="Symbols" stroke="none" stroke-width="1" fill="none" fill-rule="evenodd">
        <g id="2.Regular/Datacloud_2Regular" fill="#5CB615" fill-rule="nonzero">
            <path d="M17.1361345,15.297479 L17.1361345,11.0756303 C17.1361345,10.4033613 16.7731092,9.49915966 14.994958,8.97478992 C13.1697479,8.4302521 10.1243697,8.4302521 8.28571429,8.97478992 C7.12605042,9.32436975 6.42016807,9.86890756 6.21176471,10.6084034 C6.16134454,10.7563025 6.14117647,10.9109244 6.14117647,11.0756303 L6.14117647,15.3546218 L5.25714286,15.3546218 C4.12773109,15.3546218 1.50588235,14.994958 1.50588235,11.6672269 C1.50588235,9.79831933 2.32268908,8.62184874 3.92268908,8.16470588 C4.23865546,8.07731092 4.45378151,7.79495798 4.45378151,7.46554622 L4.44369748,7.33781513 C4.44369748,1.87226891 9.26722689,1.45546218 10.7495798,1.45546218 C11.5831933,1.45546218 15.8184874,1.64033613 16.810084,5.32773109 C16.897479,5.64033613 17.1731092,5.86218487 17.5092437,5.87226891 C18.9142857,5.91260504 22.1848739,6.44705882 22.1848739,10.5714286 C22.1848739,14.9478992 18.4739496,15.287395 17.3344538,15.287395 L17.1361345,15.297479 Z M8.71596639,10.3764706 C9.49243697,10.1445378 10.5344538,10.0168067 11.6436975,10.0168067 C12.7428571,10.0168067 13.7848739,10.1445378 14.5714286,10.3663866 C15.0621849,10.5243697 15.4084034,10.6991597 15.5731092,10.8840336 C15.4252101,11.0285714 15.1226891,11.2168067 14.5714286,11.3815126 C13.0184874,11.8487395 10.2789916,11.8487395 8.72605042,11.3815126 C8.16470588,11.2168067 7.85210084,11.0218487 7.71428571,10.8773109 C7.86218487,10.7159664 8.16806723,10.5344538 8.71596639,10.3764706 Z M15.6605042,14.2487395 C15.5428571,14.4134454 15.2168067,14.6756303 14.5680672,14.8638655 C13.0151261,15.3310924 10.2756303,15.3310924 8.72268908,14.8638655 C8.03361345,14.6588235 7.73109244,14.4168067 7.61008403,14.2689076 L7.61008403,12.5176471 C7.81512605,12.6151261 8.04369748,12.702521 8.28907563,12.7798319 C9.2,13.0420168 10.389916,13.1966387 11.6403361,13.1966387 C12.887395,13.1966387 14.0739496,13.0521008 14.9882353,12.7798319 C15.2436975,12.702521 15.4621849,12.6151261 15.6571429,12.5277311 L15.6571429,14.2487395 L15.6605042,14.2487395 Z M15.6605042,17.7478992 C15.5428571,17.912605 15.2168067,18.1747899 14.5680672,18.3596639 C13.0151261,18.8268908 10.2756303,18.8268908 8.72268908,18.3596639 C8.03361345,18.1546218 7.7210084,17.912605 7.61008403,17.7680672 L7.61008403,16.0067227 C7.81512605,16.0941176 8.04369748,16.1815126 8.29915966,16.2588235 C9.20336134,16.5310924 10.389916,16.6756303 11.6504202,16.6756303 C12.887395,16.6756303 14.0840336,16.5310924 15.0016807,16.2588235 C15.2369748,16.1915966 15.4521008,16.1042017 15.6605042,16.0067227 L15.6605042,17.7478992 L15.6605042,17.7478992 Z M15.6605042,21.1058824 C15.6605042,21.3378151 15.2470588,21.6033613 14.5680672,21.805042 C12.9983193,22.2722689 10.2756303,22.2722689 8.71260504,21.805042 C8.03697479,21.6 7.61344538,21.3378151 7.61344538,21.1058824 L7.61344538,19.512605 C7.81848739,19.6 8.04705882,19.687395 8.30252101,19.7647059 C9.20672269,20.0369748 10.3932773,20.1815126 11.6537815,20.1815126 C12.8907563,20.1815126 14.087395,20.0369748 15.005042,19.7647059 C15.2403361,19.697479 15.4554622,19.6067227 15.6638655,19.512605 L15.6638655,21.1058824 L15.6605042,21.1058824 Z M10.7495798,0 C9.47226891,0 3.21680672,0.339495798 2.97815126,6.95462185 C1.6907563,7.45882353 0.0302521008,8.69579832 0.0302521008,11.6705882 C0.0302521008,15.4621849 2.73277311,16.8168067 5.25714286,16.8168067 L6.14117647,16.8168067 L6.14117647,21.1058824 C6.14117647,21.7680672 6.51428571,22.6722689 8.29243697,23.2067227 C9.20336134,23.4789916 10.3932773,23.6235294 11.6436975,23.6235294 C12.8806723,23.6235294 14.0705882,23.4789916 14.9915966,23.2067227 C16.7697479,22.6722689 17.1327731,21.7680672 17.1327731,21.1058824 L17.1327731,16.7596639 L17.3277311,16.7495798 C20.2453782,16.7495798 23.6537815,15.1361345 23.6537815,10.5747899 C23.6537815,6.42352941 20.8638655,4.7092437 18.0739496,4.44705882 C16.5747899,0.21512605 11.7344538,0 10.7495798,0 Z" id="Datacloud_2Regular"></path>
        </g>
    </g>
</svg>

<svg width="24" height="24" viewBox="0 0 24 24" xmlns="http://www.w3.org/2000/svg"><path d="M17.136 15.297v-4.221c0-.673-.363-1.577-2.141-2.101-1.825-.545-4.87-.545-6.71 0-1.159.35-1.865.894-2.073 1.633a1.43 1.43 0 00-.07.468v4.279h-.885c-1.13 0-3.751-.36-3.751-3.688 0-1.869.817-3.045 2.417-3.502a.72.72 0 00.53-.7l-.01-.127c0-5.466 4.824-5.883 6.307-5.883.833 0 5.068.185 6.06 3.873a.742.742 0 00.7.544c1.404.04 4.675.575 4.675 4.7 0 4.376-3.711 4.715-4.85 4.715l-.199.01zm-8.42-4.92c.776-.232 1.818-.36 2.928-.36 1.099 0 2.14.128 2.927.35.491.157.837.332 1.002.517-.148.145-.45.333-1.002.498-1.553.467-4.292.467-5.845 0-.561-.165-.874-.36-1.012-.505.148-.161.454-.343 1.002-.5zm6.945 3.872c-.118.164-.444.427-1.093.615-1.553.467-4.292.467-5.845 0-.69-.205-.992-.447-1.113-.595v-1.751c.205.097.434.185.68.262.91.262 2.1.417 3.35.417 1.247 0 2.434-.145 3.348-.417.256-.077.474-.165.67-.252v1.72h.003zm0 3.499c-.118.165-.444.427-1.093.612-1.553.467-4.292.467-5.845 0-.69-.205-1.002-.447-1.113-.592v-1.761c.205.087.434.175.69.252.903.272 2.09.417 3.35.417 1.237 0 2.434-.145 3.352-.417.235-.067.45-.155.659-.252v1.74zm0 3.358c0 .232-.414.497-1.093.699-1.57.467-4.292.467-5.855 0-.676-.205-1.1-.467-1.1-.7v-1.592c.205.087.434.174.69.252.904.272 2.09.417 3.35.417 1.238 0 2.434-.145 3.352-.417.235-.068.45-.158.659-.252v1.593h-.003zM10.75 0C9.472 0 3.217.34 2.978 6.955 1.691 7.459.03 8.695.03 11.67c0 3.791 2.703 5.146 5.227 5.146h.884v4.289c0 .662.373 1.566 2.151 2.1.911.273 2.101.418 3.352.418 1.237 0 2.427-.145 3.348-.417 1.778-.535 2.14-1.439 2.14-2.101V16.76l.196-.01c2.917 0 6.326-1.614 6.326-6.175 0-4.151-2.79-5.866-5.58-6.128C16.574.215 11.734 0 10.75 0z" fill="#5CB615" fill-rule="nonzero"/></svg>
